X:1
T:Petitio, LM
T:Petitio, LM
T:William Washburn Sleeper, 1912
T:Public Domain Courtesy of the Cyber Hymnal™
C:William Washburn Sleeper, 1912
Z:Public Domain
Z:Courtesy of the Cyber Hymnal™
%%score ( 1 2 ) ( 3 4 )
L:1/8
Q:1/4=95
M:4/4
K:G
V:1 treble 
V:2 treble 
V:3 bass 
V:4 bass 
V:1
 [DB][^DB][EB] | [FB]3 [FA] [DF]2 [^DF]2 | [FA]6 [=FG]2 | [Ec]3 [Ec] [DB][DA][DG][DA] | [DB]6 D2 | %5
 D3 [^CG] [DF]2 [EF]2 | [^DF]3 [DA] [EG]2 [GA]2 | [GB]3 [Gd] [Ac][GB] [FB]>[DA] | [DG]4- [DG] |] %9
V:2
 x3 | x8 | x8 | x8 | x6 D2 | D3 x5 | x8 | x8 | x5 |] %9
V:3
 [G,B,][F,A,][E,G,] | [^D,F,]2 [B,,B,]2 [B,,B,]2 [B,,B,]2 | [E,B,]6 [D,G,]2 | %3
 [C,G,]2 [A,,A,]2 [D,F,][D,C][E,B,][F,A,] | G,6 [G,B,]2 | [F,A,]3 [E,A,] [D,A,]2 [C,A,]2 | %6
 [B,,A,]3 [B,,F,] [E,G,]2 [E,^C]2 | [D,D]3 [D,B,] [F,D][G,D] [D,D]>[D,C] | [G,,B,]4- [G,,B,] |] %9
V:4
 x3 | x8 | x8 | x8 | G,6 x2 | x8 | x8 | x8 | x5 |] %9

